assets/Rainbow/Flat/rainbow_flat.svg

<svg width="32" height="32" viewBox="0 0 32 32" fill="none" xmlns="http://www.w3.org/2000/svg">
<path d="M30 4.00001C30 2.89544 29.1033 1.99257 28.0016 2.07146C21.3098 2.55057 14.9767 5.42328 10.2 10.2C5.42328 14.9767 2.55057 21.3098 2.07146 28.0016C1.99257 29.1033 2.89545 30 4.00001 30C4.00001 30 4.60992 30.0185 5 30C7 21.5 7.64001 18.01 12.32 13.32C17.01 8.63 23.5 6 30 5L30 4.00001Z" fill="#F8312F"/>
<path d="M30 8V5C23.37 5 17.01 7.63 12.32 12.32C7.64001 17.01 5 23.37 5 30H8C9 26 11.32 19.57 15.44 15.44C19.56 11.32 23.5 9.5 30 8Z" fill="#FFB02E"/>
<path d="M30 8V11C25 11.5 21.12 14 17.56 17.56C14 21.13 12 25 11 30H8C8 24.17 10.32 18.57 14.44 14.44C18.56 10.32 24.16 8 30 8Z" fill="#FFF478"/>
<path d="M19.69 19.69C16.69 22.69 15 26 14 30H11C11 24.96 13 20.13 16.56 16.56C20.12 13 24.96 11 30 11V14C25.5 15 22.69 16.69 19.69 19.69Z" fill="#00D26A"/>
<path d="M30 17V14C25.76 14 21.69 15.69 18.69 18.69C15.69 21.69 14 25.76 14 30H17C17 26.55 18.37 23.24 20.81 20.81C23.25 18.37 26.56 17 30 17Z" fill="#3F5FFF"/>
<path d="M30 18C30 19.1046 29.0955 19.9791 28.0128 20.1975C24.0842 20.9896 20.9896 24.0842 20.1975 28.0128C19.9791 29.0955 19.1046 30 18 30L17 30C17 26.55 18.37 23.24 20.81 20.81C23.25 18.37 26.56 17 30 17V18Z" fill="#8D65C5"/>
</svg>

<svg xmlns="http://www.w3.org/2000/svg" width="32" height="32" fill="none"><path fill="#F8312F" d="M30 4c0-1.105-.897-2.007-1.998-1.929A28.015 28.015 0 0 0 10.2 10.2a28.015 28.015 0 0 0-8.129 17.802C1.993 29.103 2.895 30 4 30c0 0 .61.018 1 0 2-8.5 2.64-11.99 7.32-16.68C17.01 8.63 23.5 6 30 5V4Z"/><path fill="#FFB02E" d="M30 8V5a25 25 0 0 0-17.68 7.32A25.042 25.042 0 0 0 5 30h3c1-4 3.32-10.43 7.44-14.56C19.56 11.32 23.5 9.5 30 8Z"/><path fill="#FFF478" d="M30 8v3c-5 .5-8.88 3-12.44 6.56C14 21.13 12 25 11 30H8c0-5.83 2.32-11.43 6.44-15.56A22.01 22.01 0 0 1 30 8Z"/><path fill="#00D26A" d="M19.69 19.69C16.69 22.69 15 26 14 30h-3c0-5.04 2-9.87 5.56-13.44C20.12 13 24.96 11 30 11v3c-4.5 1-7.31 2.69-10.31 5.69Z"/><path fill="#3F5FFF" d="M30 17v-3c-4.24 0-8.31 1.69-11.31 4.69-3 3-4.69 7.07-4.69 11.31h3c0-3.45 1.37-6.76 3.81-9.19C23.25 18.37 26.56 17 30 17Z"/><path fill="#8D65C5" d="M30 18c0 1.105-.904 1.98-1.987 2.198a10.012 10.012 0 0 0-7.816 7.815C19.98 29.095 19.106 30 18 30h-1c0-3.45 1.37-6.76 3.81-9.19C23.25 18.37 26.56 17 30 17v1Z"/></svg>
